Flat-Remix-Blue-Dark/apps/scalable/fusion-icon.svg

<?xml version="1.0" encoding="UTF-8" standalone="no"?>
<svg
   xmlns:dc="http://purl.org/dc/elements/1.1/"
   xmlns:cc="http://creativecommons.org/ns#"
   xmlns:rdf="http://www.w3.org/1999/02/22-rdf-syntax-ns#"
   xmlns:svg="http://www.w3.org/2000/svg"
   xmlns="http://www.w3.org/2000/svg"
   xmlns:sodipodi="http://sodipodi.sourceforge.net/DTD/sodipodi-0.dtd"
   xmlns:inkscape="http://www.inkscape.org/namespaces/inkscape"
   width="512"
   height="512"
   version="1.1"
   viewBox="0 0 384 384"
   id="svg52"
   sodipodi:docname="fusion-icon.svg"
   inkscape:version="0.92.4 5da689c313, 2019-01-14">
  <metadata
     id="metadata56">
    <rdf:RDF>
      <cc:Work
         rdf:about="">
        <dc:format>image/svg+xml</dc:format>
        <dc:type
           rdf:resource="http://purl.org/dc/dcmitype/StillImage" />
        <dc:title></dc:title>
      </cc:Work>
    </rdf:RDF>
  </metadata>
  <sodipodi:namedview
     pagecolor="#ffffff"
     bordercolor="#666666"
     borderopacity="1"
     objecttolerance="10"
     gridtolerance="10"
     guidetolerance="10"
     inkscape:pageopacity="0"
     inkscape:pageshadow="2"
     inkscape:window-width="1720"
     inkscape:window-height="1382"
     id="namedview54"
     showgrid="false"
     inkscape:zoom="0.921875"
     inkscape:cx="482.79798"
     inkscape:cy="525.22896"
     inkscape:window-x="1080"
     inkscape:window-y="315"
     inkscape:window-maximized="0"
     inkscape:current-layer="svg52" />
  <defs
     id="defs38">
    <filter
       id="alpha"
       width="100%"
       height="100%"
       x="0%"
       y="0%"
       filterUnits="objectBoundingBox">
      <feColorMatrix
         in="SourceGraphic"
         type="matrix"
         values="0 0 0 0 1 0 0 0 0 1 0 0 0 0 1 0 0 0 1 0"
         id="feColorMatrix2" />
    </filter>
    <mask
       id="mask0">
      <g
         filter="url(#alpha)"
         id="g7">
        <rect
           width="384"
           height="384"
           x="0"
           y="0"
           style="fill:rgb(0%,0%,0%);fill-opacity:0.2"
           id="rect5" />
      </g>
    </mask>
    <clipPath
       id="clip1">
      <rect
         width="384"
         height="384"
         x="0"
         y="0"
         id="rect10" />
    </clipPath>
    <g
       id="surface5"
       clip-path="url(#clip1)">
      <path
         style="fill:rgb(0%,0%,0%)"
         d="M 24 337.199219 L 24 349.199219 C 24 358.5 31.496094 366 40.804688 366 L 343.199219 366 C 352.5 366 360 358.5 360 349.199219 L 360 337.199219 C 360 346.5 352.5 354 343.199219 354 L 40.804688 354 C 31.503906 354 24.003906 346.5 24.003906 337.199219 Z M 24 337.199219"
         id="path13" />
    </g>
    <mask
       id="mask1">
      <g
         filter="url(#alpha)"
         id="g18">
        <rect
           width="384"
           height="384"
           x="0"
           y="0"
           style="fill:rgb(0%,0%,0%);fill-opacity:0.2"
           id="rect16" />
      </g>
    </mask>
    <clipPath
       id="clip2">
      <rect
         width="384"
         height="384"
         x="0"
         y="0"
         id="rect21" />
    </clipPath>
    <g
       id="surface8"
       clip-path="url(#clip2)">
      <path
         style="fill-rule:evenodd;fill:rgb(0%,0%,0%)"
         d="M 132.023438 30 C 120.144531 30.019531 108.265625 30.09375 96.363281 30.234375 C -5.378906 144.066406 97.519531 216.203125 180 234 C 92.703125 177.289062 166.746094 73.3125 240 30.140625 C 203.9375 30.3125 168.015625 29.945312 132.023438 30 Z M 204 162 C 287.65625 216.34375 223.132812 313.949219 153.140625 360 L 292.523438 360 C 385.722656 249.515625 285.074219 179.492188 204 162 Z M 175.183594 162.011719 C 174.734375 162.007812 174.289062 162.015625 173.847656 162.035156 C 168.640625 162.300781 164.28125 164.070312 161.167969 167.191406 C 151.191406 177.582031 156.742188 199.507812 173.617188 216.382812 C 190.492188 233.257812 212.417969 238.808594 222.808594 228.832031 C 231.160156 220.476562 229.257812 203.917969 218.160156 188.34375 C 207.058594 172.769531 189.484375 162 175.183594 162.011719 Z M 175.183594 162.011719"
         id="path24" />
    </g>
    <mask
       id="mask2">
      <g
         filter="url(#alpha)"
         id="g29">
        <rect
           width="384"
           height="384"
           x="0"
           y="0"
           style="fill:rgb(0%,0%,0%);fill-opacity:0.101961"
           id="rect27" />
      </g>
    </mask>
    <clipPath
       id="clip3">
      <rect
         width="384"
         height="384"
         x="0"
         y="0"
         id="rect32" />
    </clipPath>
    <g
       id="surface11"
       clip-path="url(#clip3)">
      <path
         style="fill:rgb(100.000%,100.000%,100.000%)"
         d="M 40.804688 24 C 31.496094 24 24 31.496094 24 40.804688 L 24 46.816406 C 24 37.507812 31.496094 30.011719 40.804688 30.011719 L 343.195312 30.011719 C 352.496094 30.011719 360 37.507812 360 46.816406 L 360 40.804688 C 360 31.496094 352.496094 24 343.195312 24 Z M 40.804688 24"
         id="path35" />
    </g>
  </defs>
  <path
     inkscape:connector-curvature="0"
     id="path42"
     d="M 360,343.19922 V 40.804688 c 0,-9.277344 -7.52344,-16.796876 -16.80078,-16.796876 H 40.804688 c -9.277344,0 -16.796876,7.519532 -16.796876,16.796876 V 343.19922 c 0,9.27734 7.519532,16.80078 16.796876,16.80078 H 343.19922 C 352.47656,360 360,352.47656 360,343.19922 Z m 0,0"
     style="fill:#4a4a4a" />
  <path
     inkscape:connector-curvature="0"
     style="opacity:0.3;fill:#000000;fill-opacity:1;fill-rule:evenodd;stroke-width:0.99999994"
     d="M 132.02344,31.5 C 120.14453,31.5195 108.26563,31.5937 96.363282,31.73437 -5.3788985,145.5664 97.519532,217.70311 180,235.49999 92.703127,178.78905 166.74609,74.812494 240,31.64062 203.93749,31.8125 168.01562,31.44531 132.02344,31.5 Z M 204,163.49999 c 87.29687,56.71093 13.25391,153.18749 -60,196.35937 47.96094,-0.23046 95.66406,0.48046 143.63671,-0.0937 C 389.3789,245.93358 286.48047,181.29686 204,163.49999 Z m -30.15234,0.0352 c -5.20704,0.26562 -9.56641,2.03516 -12.67969,5.15625 -9.97656,10.39062 -4.42578,32.3164 12.44922,49.1914 16.875,16.875 38.80078,22.42578 49.1914,12.44922 8.50782,-8.49609 6.38282,-25.47265 -5.16797,-41.22655 -11.54688,-15.75781 -29.57812,-26.28516 -43.79296,-25.57032 z"
     id="path46-5"
     sodipodi:nodetypes="cccccccccccsccc" />
  <path
     inkscape:connector-curvature="0"
     id="path46"
     d="M 132.02344,24 C 120.14453,24.01953 108.26563,24.09375 96.363281,24.234375 -5.378906,138.06641 97.519531,210.20312 180,228 92.703125,171.28906 166.74609,67.3125 240,24.140625 203.9375,24.3125 168.01562,23.945312 132.02344,24 Z M 204,156 c 87.29687,56.71094 13.25391,160.6875 -60,203.85937 47.96094,-0.23046 95.66406,0.48047 143.63672,-0.0937 C 389.37891,245.93359 286.48047,173.79687 204,156 Z m -30.15234,0.0352 c -5.20704,0.26562 -9.56641,2.03515 -12.67969,5.15625 -9.97656,10.39062 -4.42578,32.3164 12.44922,49.1914 16.875,16.875 38.80078,22.42578 49.1914,12.44922 8.50782,-8.49609 6.38282,-25.47266 -5.16797,-41.22656 C 206.09375,165.8477 188.0625,155.32035 173.84766,156.0352 Z m 0,0"
     style="fill:#fd4747;fill-rule:evenodd" />
  <path
     style="fill:#000000;stroke-width:1.33333325;fill-opacity:1;opacity:0.3"
     d="M 32.009766 447.59961 L 32.009766 457.59961 C 32.009766 469.9694 42.036458 480 54.40625 480 L 457.59961 480 C 469.9694 480 480 469.9694 480 457.59961 L 480 447.59961 C 480 459.9694 469.9694 470 457.59961 470 L 54.40625 470 C 42.03645 470 32.009766 459.9694 32.009766 447.59961 z "
     transform="scale(0.75)"
     id="path42-0" />
  <path
     style="fill:#ffffff;stroke-width:1.33333325;fill-opacity:1;opacity:0.3"
     d="M 54.40625 32.009766 C 42.03645 32.009766 32.009766 42.036463 32.009766 54.40625 L 32.009766 64.40625 C 32.009766 52.036465 42.03645 42.009766 54.40625 42.009766 L 457.59961 42.009766 C 469.9694 42.009766 480 52.036465 480 64.40625 L 480 54.40625 C 480 42.036463 469.9694 32.009766 457.59961 32.009766 L 54.40625 32.009766 z "
     transform="scale(0.75)"
     id="path42-6" />
</svg>

<svg width="512" height="512" version="1.1" viewBox="0 0 384 384" xmlns="http://www.w3.org/2000/svg" xmlns:xlink="http://www.w3.org/1999/xlink"><defs><clipPath><rect width="384" height="384"/></clipPath><clipPath><rect width="384" height="384"/></clipPath><clipPath><rect width="384" height="384"/></clipPath><clipPath><rect width="384" height="384"/></clipPath><clipPath><rect width="384" height="384"/></clipPath><clipPath><rect width="384" height="384"/></clipPath><clipPath><rect width="384" height="384"/></clipPath><clipPath><rect width="384" height="384"/></clipPath><clipPath><rect width="384" height="384"/></clipPath><clipPath><rect width="384" height="384"/></clipPath><clipPath><rect width="384" height="384"/></clipPath><clipPath><rect width="384" height="384"/></clipPath><clipPath><rect width="384" height="384"/></clipPath><clipPath><rect width="384" height="384"/></clipPath><clipPath><rect width="384" height="384"/></clipPath><clipPath><rect width="384" height="384"/></clipPath><clipPath><rect width="384" height="384"/></clipPath><clipPath><rect width="384" height="384"/></clipPath><clipPath><rect width="384" height="384"/></clipPath><clipPath><rect width="384" height="384"/></clipPath><clipPath><rect width="384" height="384"/></clipPath><clipPath><rect width="384" height="384"/></clipPath><clipPath><rect width="384" height="384"/></clipPath><clipPath><rect width="384" height="384"/></clipPath><clipPath><rect width="384" height="384"/></clipPath><clipPath><rect width="384" height="384"/></clipPath><clipPath><rect width="384" height="384"/></clipPath><clipPath><rect width="384" height="384"/></clipPath><clipPath><rect width="384" height="384"/></clipPath><clipPath><rect width="384" height="384"/></clipPath><clipPath><rect width="384" height="384"/></clipPath><clipPath><rect width="384" height="384"/></clipPath><clipPath><rect width="384" height="384"/></clipPath><clipPath><rect width="384" height="384"/></clipPath><clipPath><rect width="384" height="384"/></clipPath><clipPath><rect width="384" height="384"/></clipPath><clipPath><rect width="384" height="384"/></clipPath><clipPath><rect width="384" height="384"/></clipPath><clipPath><rect width="384" height="384"/></clipPath><clipPath><rect width="384" height="384"/></clipPath><clipPath><rect width="384" height="384"/></clipPath><clipPath><rect width="384" height="384"/></clipPath><clipPath><rect width="384" height="384"/></clipPath><clipPath><rect width="384" height="384"/></clipPath><clipPath><rect width="384" height="384"/></clipPath><clipPath><rect width="384" height="384"/></clipPath><clipPath><rect width="384" height="384"/></clipPath><clipPath><rect width="384" height="384"/></clipPath><clipPath><rect width="384" height="384"/></clipPath><clipPath><rect width="384" height="384"/></clipPath><clipPath><rect width="384" height="384"/></clipPath><clipPath><rect width="384" height="384"/></clipPath><clipPath><rect width="384" height="384"/></clipPath><clipPath id="c"><path d="m111 119h177v23h-177z"/></clipPath><clipPath><path d="m368.64 199.88c0-93.234-75.602-168.75-168.75-168.75-93.152 0-168.75 75.516-168.75 168.75s75.598 168.75 168.75 168.75c93.148 0 168.75-75.516 168.75-168.75z"/></clipPath><clipPath id="b"><path d="m177 130h45v89h-45z"/></clipPath><clipPath><path d="m368.64 199.88c0-93.234-75.602-168.75-168.75-168.75-93.152 0-168.75 75.516-168.75 168.75s75.598 168.75 168.75 168.75c93.148 0 168.75-75.516 168.75-168.75z"/></clipPath><clipPath id="a"><path d="m111 207h177v89h-177z"/></clipPath><clipPath><path d="m368.64 199.88c0-93.234-75.602-168.75-168.75-168.75-93.152 0-168.75 75.516-168.75 168.75s75.598 168.75 168.75 168.75c93.148 0 168.75-75.516 168.75-168.75z"/></clipPath><clipPath id="d"><rect width="384" height="384"/></clipPath><g clip-path="url(#d)"><g clip-path="url(#c)"></g><g clip-path="url(#b)"></g><g clip-path="url(#a)"></g></g><clipPath><rect width="384" height="384"/></clipPath><clipPath><rect width="384" height="384"/></clipPath><clipPath><rect width="384" height="384"/></clipPath><clipPath><rect width="384" height="384"/></clipPath><clipPath><rect width="384" height="384"/></clipPath><clipPath><rect width="384" height="384"/></clipPath><clipPath><rect width="384" height="384"/></clipPath><clipPath><rect width="384" height="384"/></clipPath><clipPath><rect width="384" height="384"/></clipPath><clipPath><rect width="384" height="384"/></clipPath><clipPath><rect width="384" height="384"/></clipPath></defs><path d="m360 343.2v-302.39c0-9.2773-7.5234-16.797-16.801-16.797h-302.39c-9.2773 0-16.797 7.5195-16.797 16.797v302.39c0 9.2773 7.5195 16.801 16.797 16.801h302.39c9.2773 0 16.801-7.5234 16.801-16.801z" style="fill:#272a34"/><path d="m132.02 31.5c-11.879 0.0195-23.758 0.0937-35.66 0.23437-101.74 113.83 1.1562 185.97 83.637 203.77-87.297-56.711-13.254-160.69 60-203.86-36.063 0.17188-71.984-0.19531-107.98-0.14062zm71.977 132c87.297 56.711 13.254 153.19-60 196.36 47.961-0.23046 95.664 0.48046 143.64-0.0937 101.74-113.83-1.1562-178.47-83.637-196.27zm-30.152 0.0352c-5.207 0.26562-9.5664 2.0352-12.68 5.1562-9.9766 10.391-4.4258 32.316 12.449 49.191s38.801 22.426 49.191 12.449c8.5078-8.4961 6.3828-25.473-5.168-41.227-11.547-15.758-29.578-26.285-43.793-25.57z" style="fill-rule:evenodd;opacity:.3"/><path d="m132.02 24c-11.879 0.01953-23.758 0.09375-35.66 0.23438-101.74 113.83 1.1562 185.97 83.637 203.77-87.297-56.711-13.254-160.69 60-203.86-36.062 0.17188-71.984-0.19531-107.98-0.14062zm71.977 132c87.297 56.711 13.254 160.69-60 203.86 47.961-0.23046 95.664 0.48047 143.64-0.0937 101.74-113.83-1.1562-185.97-83.637-203.77zm-30.152 0.0352c-5.207 0.26562-9.5664 2.0352-12.68 5.1562-9.9766 10.391-4.4258 32.316 12.449 49.191s38.801 22.426 49.191 12.449c8.5078-8.4961 6.3828-25.473-5.168-41.227-11.547-15.758-29.578-26.285-43.793-25.57z" style="fill-rule:evenodd;fill:#fd3535"/><path transform="scale(.75)" d="m32.01 447.6v10c0 12.37 10.027 22.4 22.396 22.4h403.19c12.37 0 22.4-10.031 22.4-22.4v-10c0 12.37-10.031 22.4-22.4 22.4h-403.19c-12.37 0-22.396-10.031-22.396-22.4z" style="opacity:.3;stroke-width:1.3333"/><path transform="scale(.75)" d="m54.406 32.01c-12.37 0-22.396 10.027-22.396 22.396v10c0-12.37 10.027-22.396 22.396-22.396h403.19c12.37 0 22.4 10.027 22.4 22.396v-10c0-12.37-10.031-22.396-22.4-22.396h-403.19z" style="fill:#fff;opacity:.1;stroke-width:1.3333"/></svg>
